;FLAVOR:Marlin
;TIME:1215
;Filament used: 1.62746m
;Layer height: 0.25
;MINX:84.44
;MINY:109.41
;MINZ:0.3
;MAXX:135.56
;MAXY:160.582
;MAXZ:6.8
;Generated with Cura_SteamEngine 4.8.0
M140 S60
M105
M190 S60
M104 S200
M105
M109 S200
M82 ;absolute extrusion mode
G21 ;metric values
G90 ;absolute positioning
M82 ;set extruder to absolute mode
M107 ;start with the fan off
G28 X0 Y0 ;move X/Y to min endstops
G28 Z0 ;move Z to min endstops
G29 ;
G92 E0 ;zero the extruded length
;Put printing message on LCD screen
M117 Imprimiendoooo...
G92 E0
G92 E0
G1 F3000 E-2.5
;LAYER_COUNT:27
;LAYER:0
M107
G0 F3600 X93.186 Y115.718 Z0.3
;TYPE:SKIRT
G1 F3000 E0
G1 F1800 X93.662 Y115.34 E0.03032
G1 X94.301 Y114.849 E0.07053
G1 X95.34 Y114.034 E0.13641
G1 X96.057 Y113.542 E0.17979
G1 X96.241 Y113.429 E0.19057
G1 X97.522 Y112.695 E0.26422
G1 X98.648 Y112.073 E0.3284
G1 X99.181 Y111.811 E0.35803
G1 X99.6 Y111.625 E0.3809
G1 X100.962 Y111.092 E0.45387
G1 X102.209 Y110.63 E0.52022
G1 X102.741 Y110.462 E0.54805
G1 X103.191 Y110.339 E0.57132
G1 X104.159 Y110.119 E0.62085
G1 X105.061 Y109.922 E0.66691
G1 X105.932 Y109.741 E0.71129
G1 X106.431 Y109.661 E0.73651
G1 X106.967 Y109.596 E0.76344
G1 X108.347 Y109.496 E0.83247
G1 X109.749 Y109.418 E0.90253
G1 X110.206 Y109.41 E0.92533
G1 X110.799 Y109.43 E0.95493
G1 X112.255 Y109.546 E1.0278
G1 X113.514 Y109.66 E1.09087
G1 X114.047 Y109.73 E1.11769
G1 X114.632 Y109.84 E1.14739
G1 X115.681 Y110.087 E1.20115
G1 X116.471 Y110.283 E1.24176
G1 X117.014 Y110.407 E1.26955
G1 X117.749 Y110.612 E1.30762
G1 X118.312 Y110.806 E1.33733
G1 X119.249 Y111.178 E1.38762
G1 X119.622 Y111.337 E1.40785
G1 X120.759 Y111.795 E1.46901
G1 X121.399 Y112.091 E1.50419
G1 X121.802 Y112.302 E1.52688
G1 X123.004 Y113.005 E1.59635
G1 X123.09 Y113.05 E1.6012
G1 X124.186 Y113.711 E1.66505
G1 X124.665 Y114.031 E1.69379
G1 X125.063 Y114.321 E1.71836
G1 X126.079 Y115.134 E1.78328
G1 X126.402 Y115.397 E1.80406
G1 X127.209 Y116.067 E1.85639
G1 X127.624 Y116.447 E1.88446
G1 X127.96 Y116.78 E1.90806
G1 X129.011 Y117.917 E1.98531
G1 X129.847 Y118.854 E2.04796
G1 X130.167 Y119.247 E2.07324
G1 X130.492 Y119.683 E2.10037
G1 X131.072 Y120.541 E2.15204
G1 X131.282 Y120.871 E2.17155
G1 X132.006 Y121.955 E2.23659
G1 X132.266 Y122.387 E2.26174
G1 X132.538 Y122.893 E2.2904
G1 X133.225 Y124.328 E2.36978
G1 X133.718 Y125.407 E2.42896
G1 X133.915 Y125.896 E2.45526
G1 X134.09 Y126.381 E2.48099
G1 X134.365 Y127.272 E2.52751
G1 X134.546 Y127.879 E2.55911
G1 X134.887 Y129.065 E2.62068
G1 X135.007 Y129.567 E2.64643
G1 X135.105 Y130.066 E2.6718
G1 X135.172 Y130.512 E2.6943
G1 X135.293 Y131.431 E2.74054
G1 X135.489 Y132.808 E2.80994
G1 X135.554 Y133.666 E2.85286
G1 X135.56 Y133.871 E2.8631
G1 X135.56 Y134.73 E2.90595
G1 X135.554 Y135.367 E2.93773
G1 X135.53 Y136.647 E3.0016
G1 X135.467 Y137.496 E3.04408
G1 X135.441 Y137.699 E3.05429
G1 X135.218 Y139.122 E3.12615
G1 X135.215 Y139.17 E3.12855
G1 X134.986 Y140.509 E3.19632
G1 X134.808 Y141.274 E3.2355
G1 X134.755 Y141.459 E3.24511
G1 X134.508 Y142.25 E3.28645
G1 X134.14 Y143.368 E3.34517
G1 X133.978 Y143.894 E3.37263
G1 X133.746 Y144.536 E3.40668
G1 X133.515 Y145.078 E3.43608
G1 X133.233 Y145.659 E3.4683
G1 X132.819 Y146.479 E3.51413
G1 X132.315 Y147.508 E3.57129
G1 X132.04 Y148.003 E3.59954
G1 X131.742 Y148.483 E3.62773
G1 X130.953 Y149.635 E3.69739
G1 X130.157 Y150.757 E3.76602
G1 X129.62 Y151.425 E3.80878
G1 X129.492 Y151.568 E3.81836
G1 X128.74 Y152.369 E3.87317
G1 X128.199 Y152.929 E3.91202
G1 X127.736 Y153.427 E3.94594
G1 X127.247 Y153.904 E3.98002
G1 X126.814 Y154.282 E4.0087
G1 X126.338 Y154.66 E4.03902
G1 X125.699 Y155.151 E4.07923
G1 X124.66 Y155.966 E4.14511
G1 X123.943 Y156.458 E4.18849
G1 X123.76 Y156.57 E4.1992
G1 X122.518 Y157.283 E4.27064
G1 X121.353 Y157.927 E4.33706
G1 X120.819 Y158.189 E4.36673
G1 X120.4 Y158.375 E4.3896
G1 X119.038 Y158.908 E4.46257
G1 X117.791 Y159.37 E4.52892
G1 X117.259 Y159.538 E4.55675
G1 X116.809 Y159.661 E4.58002
G1 X115.841 Y159.881 E4.62955
G1 X114.939 Y160.078 E4.67561
G1 X114.068 Y160.259 E4.71999
G1 X113.569 Y160.339 E4.74521
G1 X113.032 Y160.404 E4.77219
G1 X111.654 Y160.504 E4.84112
G1 X110.251 Y160.582 E4.91123
G1 X109.394 Y160.58 E4.95398
G1 X109.202 Y160.57 E4.96357
G1 X107.743 Y160.455 E5.03659
G1 X106.484 Y160.34 E5.09966
G1 X105.953 Y160.27 E5.12638
G1 X105.368 Y160.16 E5.15608
G1 X104.319 Y159.913 E5.20985
G1 X103.529 Y159.717 E5.25046
G1 X102.986 Y159.593 E5.27824
G1 X102.251 Y159.388 E5.31631
G1 X101.688 Y159.194 E5.34602
G1 X100.751 Y158.822 E5.39632
G1 X100.378 Y158.663 E5.41655
G1 X99.239 Y158.204 E5.47781
G1 X98.601 Y157.91 E5.51286
G1 X98.195 Y157.697 E5.53573
G1 X96.987 Y156.99 E5.60556
G1 X96.91 Y156.95 E5.60989
G1 X95.814 Y156.289 E5.67375
G1 X95.343 Y155.975 E5.70199
G1 X94.935 Y155.678 E5.72717
G1 X93.882 Y154.836 E5.79443
G1 X93.549 Y154.563 E5.81591
G1 X92.786 Y153.927 E5.86547
G1 X92.375 Y153.553 E5.89319
G1 X92.038 Y153.219 E5.91686
G1 X90.982 Y152.075 E5.99454
G1 X90.153 Y151.146 E6.05666
G1 X89.625 Y150.479 E6.0991
G1 X89.506 Y150.313 E6.10929
G1 X88.984 Y149.541 E6.15578
G1 X88.754 Y149.19 E6.17672
G1 X87.988 Y148.036 E6.24582
G1 X87.729 Y147.605 E6.27091
G1 X87.457 Y147.096 E6.2997
G1 X86.774 Y145.67 E6.37858
G1 X86.273 Y144.572 E6.43879
G1 X86.072 Y144.072 E6.46568
G1 X85.914 Y143.629 E6.48914
G1 X85.596 Y142.602 E6.54278
G1 X85.466 Y142.163 E6.56562
G1 X85.113 Y140.934 E6.62942
G1 X84.991 Y140.423 E6.65563
G1 X84.892 Y139.918 E6.6813
G1 X84.822 Y139.445 E6.70516
G1 X84.707 Y138.569 E6.74924
G1 X84.511 Y137.191 E6.81868
G1 X84.446 Y136.337 E6.86141
G1 X84.44 Y136.129 E6.87179
G1 X84.44 Y135.226 E6.91684
G1 X84.447 Y134.53 E6.95156
G1 X84.47 Y133.346 E7.01064
G1 X84.5 Y132.833 E7.03628
G1 X84.561 Y132.287 E7.06369
G1 X84.787 Y130.843 E7.13661
G1 X85.014 Y129.491 E7.20501
G1 X85.194 Y128.719 E7.24455
G1 X85.247 Y128.532 E7.25425
G1 X85.686 Y127.13 E7.32755
G1 X86.089 Y125.901 E7.39207
G1 X86.269 Y125.427 E7.41737
G1 X86.479 Y124.938 E7.44392
G1 X86.767 Y124.341 E7.47699
G1 X87.181 Y123.521 E7.52282
G1 X87.685 Y122.492 E7.57998
G1 X87.96 Y121.997 E7.60823
G1 X88.259 Y121.517 E7.63645
G1 X89.058 Y120.348 E7.70709
G1 X89.843 Y119.242 E7.77475
G1 X90.388 Y118.566 E7.81807
G1 X90.515 Y118.423 E7.82762
G1 X91.27 Y117.62 E7.8826
G1 X91.828 Y117.043 E7.92265
G1 X92.285 Y116.551 E7.95615
G1 X92.753 Y116.096 E7.98872
G1 X93.186 Y115.718 E8.01739
G0 F3600 X93.435 Y116.031
G1 F1800 X93.906 Y115.657 E8.0474
G1 X94.55 Y115.162 E8.08792
G1 X95.587 Y114.349 E8.15366
G1 X96.277 Y113.876 E8.1954
G1 X96.44 Y113.776 E8.20494
G1 X97.716 Y113.045 E8.2783
G1 X98.842 Y112.423 E8.34248
G1 X99.354 Y112.171 E8.37095
G1 X99.746 Y111.997 E8.39235
G1 X101.101 Y111.467 E8.46494
G1 X102.348 Y111.005 E8.53128
G1 X102.85 Y110.847 E8.55754
G1 X103.28 Y110.729 E8.57978
G1 X104.244 Y110.509 E8.62912
G1 X105.142 Y110.314 E8.67496
G1 X106.013 Y110.133 E8.71934
G1 X106.536 Y110.05 E8.74576
G1 X106.997 Y109.994 E8.76893
G1 X108.369 Y109.895 E8.83756
G1 X109.771 Y109.817 E8.90761
G1 X110.196 Y109.81 E8.92882
G1 X110.767 Y109.829 E8.95732
G1 X112.219 Y109.944 E9.02999
G1 X113.478 Y110.058 E9.09306
G1 X113.977 Y110.124 E9.11817
G1 X114.54 Y110.229 E9.14674
G1 X115.584 Y110.476 E9.20027
G1 X116.33 Y110.662 E9.23862
G1 X116.917 Y110.795 E9.26865
G1 X117.632 Y110.995 E9.30569
G1 X118.165 Y111.178 E9.33381
G1 X119.143 Y111.566 E9.3863
G1 X119.477 Y111.71 E9.40445
G1 X120.609 Y112.166 E9.46533
G1 X121.228 Y112.452 E9.49935
G1 X121.6 Y112.647 E9.5203
G1 X122.837 Y113.371 E9.59181
G1 X122.884 Y113.393 E9.5944
G1 X123.98 Y114.054 E9.65826
G1 X124.44 Y114.361 E9.68585
G1 X124.813 Y114.633 E9.70888
G1 X125.826 Y115.444 E9.77362
G1 X126.146 Y115.705 E9.79422
G1 X126.953 Y116.375 E9.84655
G1 X127.346 Y116.734 E9.8731
G1 X127.666 Y117.051 E9.89558
G1 X128.713 Y118.184 E9.97254
G1 X129.549 Y119.121 E10.03519
G1 X130.053 Y119.757 E10.07568
G1 X130.161 Y119.907 E10.0849
G1 X130.738 Y120.761 E10.13632
G1 X130.943 Y121.082 E10.15532
G1 X131.674 Y122.177 E10.221
G1 X132.095 Y122.905 E10.26296
G1 X132.178 Y123.066 E10.272
G1 X132.862 Y124.494 E10.35099
G1 X133.355 Y125.573 E10.41017
G1 X133.647 Y126.32 E10.45019
G1 X133.708 Y126.499 E10.45962
G1 X133.981 Y127.386 E10.50592
G1 X134.161 Y127.99 E10.53737
G1 X134.502 Y129.176 E10.59894
G1 X134.679 Y129.957 E10.63889
G1 X134.767 Y130.502 E10.66643
G1 X134.902 Y131.52 E10.71766
G1 X135.093 Y132.864 E10.78539
G1 X135.155 Y133.688 E10.82661
G1 X135.16 Y133.871 E10.83575
G1 X135.16 Y134.727 E10.87845
G1 X135.154 Y135.36 E10.91004
G1 X135.13 Y136.64 E10.97391
G1 X135.068 Y137.457 E11.01478
G1 X135.045 Y137.637 E11.02384
G1 X134.834 Y138.983 E11.09181
G1 X134.821 Y139.103 E11.09783
G1 X134.61 Y140.343 E11.16058
G1 X134.42 Y141.175 E11.20316
G1 X134.373 Y141.34 E11.21172
G1 X134.128 Y142.125 E11.25275
G1 X133.76 Y143.243 E11.31147
G1 X133.598 Y143.769 E11.33893
G1 X133.374 Y144.389 E11.37182
G1 X133.155 Y144.904 E11.39974
G1 X132.876 Y145.479 E11.43162
G1 X132.462 Y146.299 E11.47745
G1 X131.956 Y147.332 E11.53484
G1 X131.699 Y147.794 E11.56121
G1 X131.411 Y148.257 E11.58842
G1 X130.627 Y149.404 E11.65773
G1 X129.831 Y150.526 E11.72636
G1 X129.314 Y151.167 E11.76745
G1 X129.2 Y151.295 E11.776
G1 X128.453 Y152.091 E11.83046
G1 X127.874 Y152.69 E11.87202
G1 X127.449 Y153.148 E11.9032
G1 X126.974 Y153.611 E11.93629
G1 X126.565 Y153.969 E11.96341
G1 X126.094 Y154.343 E11.99341
G1 X125.452 Y154.836 E12.0338
G1 X124.413 Y155.651 E12.09968
G1 X123.723 Y156.124 E12.14141
G1 X123.561 Y156.224 E12.15091
G1 X122.324 Y156.933 E12.22204
G1 X121.159 Y157.577 E12.28846
G1 X120.646 Y157.829 E12.31697
G1 X120.254 Y158.003 E12.33837
G1 X118.899 Y158.533 E12.41096
G1 X117.652 Y158.995 E12.4773
G1 X117.15 Y159.153 E12.50356
G1 X116.72 Y159.271 E12.5258
G1 X115.756 Y159.491 E12.57513
G1 X114.858 Y159.686 E12.62098
G1 X113.987 Y159.867 E12.66536
G1 X113.463 Y159.95 E12.69183
G1 X113.003 Y160.006 E12.71495
G1 X111.632 Y160.105 E12.78353
G1 X110.229 Y160.183 E12.85363
G1 X109.404 Y160.18 E12.89479
G1 X109.234 Y160.171 E12.90328
G1 X107.779 Y160.057 E12.9761
G1 X106.52 Y159.942 E13.03917
G1 X106.023 Y159.876 E13.06418
G1 X105.46 Y159.771 E13.09276
G1 X104.416 Y159.524 E13.14628
G1 X103.67 Y159.338 E13.18464
G1 X103.083 Y159.205 E13.21466
G1 X102.368 Y159.005 E13.2517
G1 X101.835 Y158.822 E13.27982
G1 X100.857 Y158.434 E13.33231
G1 X100.526 Y158.292 E13.35028
G1 X99.388 Y157.833 E13.4115
G1 X98.772 Y157.548 E13.44536
G1 X98.397 Y157.352 E13.46647
G1 X97.158 Y156.627 E13.53809
G1 X97.116 Y156.607 E13.54041
G1 X96.02 Y155.946 E13.60427
G1 X95.568 Y155.644 E13.63139
G1 X95.185 Y155.366 E13.655
G1 X94.135 Y154.526 E13.72208
G1 X93.805 Y154.256 E13.74336
G1 X93.042 Y153.62 E13.79291
G1 X92.654 Y153.266 E13.81912
G1 X92.332 Y152.947 E13.84173
G1 X91.28 Y151.809 E13.91905
G1 X90.451 Y150.88 E13.98117
G1 X89.943 Y150.237 E14.02205
G1 X89.837 Y150.089 E14.03113
G1 X89.318 Y149.322 E14.07733
G1 X89.088 Y148.971 E14.09827
G1 X88.321 Y147.815 E14.16748
G1 X87.896 Y147.077 E14.20997
G1 X87.818 Y146.924 E14.21854
G1 X87.138 Y145.504 E14.29709
G1 X86.637 Y144.406 E14.3573
G1 X86.445 Y143.927 E14.38304
G1 X86.296 Y143.511 E14.40509
G1 X85.98 Y142.488 E14.45851
G1 X85.85 Y142.052 E14.48121
G1 X85.497 Y140.823 E14.545
G1 X85.318 Y140.027 E14.5857
G1 X85.227 Y139.454 E14.61465
G1 X85.098 Y138.478 E14.66377
G1 X84.907 Y137.135 E14.73144
G1 X84.845 Y136.314 E14.77252
G1 X84.84 Y136.129 E14.78175
G1 X84.84 Y135.23 E14.8266
G1 X84.847 Y134.538 E14.86113
G1 X84.87 Y133.354 E14.92021
G1 X84.934 Y132.519 E14.96199
G1 X84.956 Y132.349 E14.97054
G1 X85.182 Y130.909 E15.04326
G1 X85.407 Y129.569 E15.11105
G1 X85.582 Y128.817 E15.14957
G1 X85.629 Y128.651 E15.15818
G1 X86.066 Y127.255 E15.23116
G1 X86.469 Y126.026 E15.29569
G1 X86.669 Y125.506 E15.32348
G1 X86.839 Y125.112 E15.34489
G1 X87.124 Y124.521 E15.37763
G1 X87.538 Y123.701 E15.42345
G1 X88.044 Y122.668 E15.48084
G1 X88.301 Y122.206 E15.50722
G1 X88.589 Y121.742 E15.53446
G1 X89.384 Y120.58 E15.6047
G1 X90.169 Y119.474 E15.67237
G1 X90.694 Y118.824 E15.71405
G1 X90.807 Y118.697 E15.72254
G1 X91.558 Y117.898 E15.77724
G1 X92.103 Y117.334 E15.81637
G1 X92.571 Y116.831 E15.85065
G1 X93.026 Y116.389 E15.88229
G1 X93.435 Y116.031 E15.90941
G1 F3000 E13.40941
;MESH:Venus_GearIn42T.stl
G0 F3600 X94.866 Y118.133
G0 X95.462 Y118.781
G0 X100.665 Y125.665
;TYPE:WALL-INNER
G1 F3000 E15.90941
G1 F1800 X96.798 Y135 E16.41352
G1 X100.665 Y144.335 E16.91762
G1 X110 Y148.202 E17.42172
G1 X119.335 Y144.335 E17.92583
G1 X123.202 Y135 E18.42993
G1 X119.335 Y125.665 E18.93403
G1 X110 Y121.798 E19.43813
G1 X100.665 Y125.665 E19.94224
G0 F3600 X100.971 Y125.971
G1 F1800 X97.231 Y135 E20.42981
G1 X100.971 Y144.029 E20.91739
G1 X110 Y147.769 E21.40496
G1 X119.029 Y144.029 E21.89253
G1 X122.769 Y135 E22.38011
G1 X119.029 Y125.971 E22.86768
G1 X110 Y122.231 E23.35526
G1 X100.971 Y125.971 E23.84283
G0 F3600 X101.277 Y126.277
;TYPE:WALL-OUTER
G1 F1800 X97.664 Y135 E24.31388
G1 X101.277 Y143.723 E24.78492
G1 X110 Y147.336 E25.25597
G1 X118.723 Y143.723 E25.72701
G1 X122.336 Y135 E26.19806
G1 X118.723 Y126.277 E26.6691
G1 X110 Y122.664 E27.14015
G1 X101.277 Y126.277 E27.61119
G0 F3600 X101.201 Y126.461
G0 X100.795 Y126.292
G0 X107.329 Y115.439
;TYPE:WALL-INNER
G1 F1800 X107.534 Y116.075 E27.64453
G1 X107.612 Y116.316 E27.65717
G1 X109.936 Y116.11 E27.77357
G1 X110.019 Y115.754 E27.7918
G1 X110.204 Y114.958 E27.83258
G1 X110.406 Y115.75 E27.85354
G1 X110.512 Y116.164 E27.87486
G1 X110.8 Y116.183 E27.88926
G1 X111.443 Y116.228 E27.92142
G1 X112.738 Y116.362 E27.98637
G1 X112.848 Y116.079 E28.00152
G1 X112.856 Y116.06 E28.00255
G1 X113.19 Y115.208 E28.0482
G1 X113.24 Y116.122 E28.07156
G1 X113.256 Y116.407 E28.0858
G1 X114.063 Y116.622 E28.12747
G1 X115.496 Y116.962 E28.20094
G1 X115.65 Y116.695 E28.21632
G1 X116.088 Y115.934 E28.26013
G1 X116.102 Y115.911 E28.26147
G1 X116.101 Y115.941 E28.26162
G1 X116.021 Y116.816 E28.28479
G1 X115.993 Y117.122 E28.30012
G1 X116.767 Y117.44 E28.34187
G1 X117.474 Y117.71 E28.37962
G1 X118.216 Y117.853 E28.41732
G1 X118.317 Y117.729 E28.4253
G1 X118.872 Y117.041 E28.4694
G1 X118.88 Y117.031 E28.47004
G1 X118.878 Y117.045 E28.4701
G1 X118.665 Y117.903 E28.49305
G1 X118.587 Y118.216 E28.50914
G1 X120.564 Y119.385 E28.62373
G1 X120.797 Y119.169 E28.63958
G1 X121.461 Y118.553 E28.68477
G1 X121.117 Y119.391 E28.70788
G1 X121.012 Y119.646 E28.72164
G1 X121.626 Y120.193 E28.76266
G1 X122.766 Y121.137 E28.8365
G1 X123.037 Y120.953 E28.85285
G1 X123.782 Y120.447 E28.89778
G1 X123.32 Y121.22 E28.92077
G1 X123.165 Y121.479 E28.93582
G1 X123.713 Y122.111 E28.97756
G1 X124.712 Y123.185 E29.05074
G1 X124.995 Y123.048 E29.06642
G1 X125.78 Y122.67 E29.10989
G1 X125.779 Y122.686 E29.11069
G1 X125.225 Y123.358 E29.13375
G1 X125.01 Y123.619 E29.15062
G1 X126.325 Y125.499 E29.26508
G1 X126.677 Y125.392 E29.28344
G1 X127.457 Y125.157 E29.32408
G1 X126.874 Y125.726 E29.34498
G1 X126.57 Y126.023 E29.36618
G1 X126.98 Y126.867 E29.41299
G1 X127.51 Y128.049 E29.47762
G1 X127.842 Y128 E29.49436
G1 X128.714 Y127.871 E29.53834
G1 X128.73 Y127.868 E29.53915
G1 X128.716 Y127.88 E29.53924
G1 X127.979 Y128.364 E29.56223
G1 X127.747 Y128.517 E29.5761
G1 X127.945 Y129.32 E29.61736
G1 X128.369 Y130.739 E29.69124
G1 X128.68 Y130.739 E29.70676
G1 X128.681 Y130.739 E29.70681
G1 X129.584 Y130.739 E29.75186
G1 X128.764 Y131.119 E29.77493
G1 X128.495 Y131.244 E29.78973
G1 X128.59 Y132.073 E29.83136
G1 X128.707 Y132.801 E29.86814
G1 X128.931 Y133.538 E29.90657
G1 X129.115 Y133.568 E29.91588
G1 X129.973 Y133.703 E29.95921
G1 X129.996 Y133.707 E29.96037
